dist/svg/target.svg

<!-- Generated by Trend Micro Style Portal -->
<svg version="1.1" xmlns="http://www.w3.org/2000/svg" width="16" height="16" viewBox="0 0 16 16">
  <title>target</title>
  <path fill="rgb(34,34,34)" d="M16 7.5h-1c-0.3-3.5-3-6.2-6.5-6.5v-1h-1v1c-3.5 0.3-6.2 3-6.5 6.5h-1v1h1c0.3 3.5 3 6.2 6.5 6.5v1h1v-1c3.5-0.2 6.2-3 6.5-6.5h1v-1zM8.5 13.5v-1.5h-1v1.5c-2.6-0.2-4.7-2.3-5-5h1.5v-1h-1.5c0.2-2.6 2.3-4.7 5-5v1.5h1v-1.5c2.6 0.2 4.7 2.3 5 5h-1.5v1h1.5c-0.3 2.6-2.4 4.7-5 5zM8 6c-1.1 0-2 0.9-2 2s0.9 2 2 2c1.1 0 2-0.9 2-2s-0.9-2-2-2zM8 9c-0.6 0-1-0.4-1-1s0.4-1 1-1c0.6 0 1 0.4 1 1s-0.4 1-1 1z"></path>
</svg>

<svg width="16" height="16" viewBox="0 0 16 16" fill="rgb(34, 34, 34)" xmlns="http://www.w3.org/2000/svg"><title>target</title><path opacity="0.92" d="M16 7.5H15C14.7 4 12 1.3 8.5 1V0H7.5V1C4 1.3 1.3 4 1 7.5H0V8.5H1C1.3 12 4 14.7 7.5 15V16H8.5V15C12 14.8 14.7 12 15 8.5H16V7.5ZM8.5 13.5V12H7.5V13.5C4.9 13.3 2.8 11.2 2.5 8.5H4V7.5H2.5C2.7 4.9 4.8 2.8 7.5 2.5V4H8.5V2.5C11.1 2.7 13.2 4.8 13.5 7.5H12V8.5H13.5C13.2 11.1 11.1 13.2 8.5 13.5ZM8 6C6.9 6 6 6.9 6 8C6 9.1 6.9 10 8 10C9.1 10 10 9.1 10 8C10 6.9 9.1 6 8 6ZM8 9C7.4 9 7 8.6 7 8C7 7.4 7.4 7 8 7C8.6 7 9 7.4 9 8C9 8.6 8.6 9 8 9Z" fill="rgb(34, 34, 34)" fill-opacity="1.00"/></svg>
